assets/icons/folder_icons/folder-tests-open.svg

<?xml version="1.0" encoding="UTF-8"?><svg id="Done" xmlns="http://www.w3.org/2000/svg" xmlns:xlink="http://www.w3.org/1999/xlink" viewBox="0 0 14 14"><defs><style>.cls-1{opacity:.3;}.cls-1,.cls-2{isolation:isolate;}.cls-3{fill:#40a0ff;}.cls-4{fill:#e5e5e5;stroke:#003768;stroke-miterlimit:10;stroke-width:.0026px;}.cls-4,.cls-5,.cls-6{fill-rule:evenodd;}.cls-5{fill:red;}.cls-7{fill:url(#linear-gradient);}.cls-6{fill:#c92d00;}.cls-2{fill:url(#radial-gradient);opacity:.711;}</style><radialGradient id="radial-gradient" cx="152.7118" cy="-124.4261" fx="152.7118" fy="-124.4261" r="1.5875" gradientTransform="translate(-363.8502 -581.874) rotate(33.6901) scale(4.1287 -2.2712)" gradientUnits="userSpaceOnUse"><stop offset="0" stop-color="#000"/><stop offset="1" stop-color="#000" stop-opacity="0"/></radialGradient><linearGradient id="linear-gradient" x1="110.5319" y1="-175.9681" x2="111.0611" y2="-175.9681" gradientTransform="translate(-412.7584 -656.5762) scale(3.7795 -3.7795)" gradientUnits="userSpaceOnUse"><stop offset="0" stop-color="#000"/><stop offset="1" stop-color="#000" stop-opacity="0"/></linearGradient></defs><g id="Layer_5"><path id="path568" class="cls-3" d="m0,0v12l4.1131,1.9355c.3105.1468.681.0135.8275-.2976.0393-.0834.0596-.1746.0594-.2668v-2.3711h6V1c-.004-.745-.4086-.9893-1-1H0Z"/><g id="g579"><path id="path569" class="cls-1" d="m-.0179,0l4.0855,1.5882c.5621.2185.9324.7597.9324,1.3628v8.049h6V1c-.004-.745-.4093-.9893-1.0016-1H-.0179Z"/><path id="path570" class="cls-2" d="m10,11c.7057-.0798,1.0812-.3798,1-.9844v-5.0156c.6647-.0018.998-.3352,1-1V1c.0053-.6399-.3093-.9903-1-1H0v11h10Z"/><g id="g629"><path id="path626" d="m4,3v3h1l-1,1v6s0,1,1,1h8c1,0,1-1,1-1v-6l-1-1h1v-3H4Z"/><path id="path627" class="cls-4" d="m5,13v-5s.9893-1.015,1-1v-2h-1v-1h8v1h-1v2l1,1v5H5Z"/><path id="path628" class="cls-6" d="m7,5.9953c2-2,2,2,4,0v1.0047l1,2v3h-6v-3l1-2v-1.0047Z"/><path id="path629" class="cls-5" d="m7,5.9953c2-2,2,2,4,0v1.0047l1,2v3h-6v-3l1-2v-1.0047Z"/></g><path id="path578" class="cls-7" d="m5,4h2v9h-2V4Z"/></g><path class="cls-3" d="m5,2.9511c.0005-.6031-.3694-1.1446-.9315-1.3632L0,.0056v11.994l4.1131,1.9355c.3105.1468.681.0135.8275-.2976.033-.0701.0446-.1472.0499-.2242l.0095-10.4621Z"/></g></svg>

<svg xmlns="http://www.w3.org/2000/svg" id="Done" viewBox="0 0 14 14"><defs><radialGradient id="radial-gradient" cx="152.712" cy="-124.426" r="1.587" fx="152.712" fy="-124.426" gradientTransform="matrix(3.43528 2.2902 1.25984 -1.88975 -363.85 -581.874)" gradientUnits="userSpaceOnUse"><stop offset="0"/><stop offset="1" stop-opacity="0"/></radialGradient><linearGradient id="linear-gradient" x1="110.532" x2="111.061" y1="-175.968" y2="-175.968" gradientTransform="matrix(3.7795 0 0 -3.7795 -412.758 -656.576)" gradientUnits="userSpaceOnUse"><stop offset="0"/><stop offset="1" stop-opacity="0"/></linearGradient><style>.cls-3{fill:#40a0ff}</style></defs><g id="Layer_5"><path id="folder" d="M0 0v12l4.113 1.936A.62.62 0 0 0 5 13.37V11h6V1c-.004-.745-.409-.99-1-1z" class="cls-3"/><path id="folder_shadow" d="m-.018 0 4.086 1.588c.562.219.932.76.932 1.363V11h6V1c-.004-.745-.41-.99-1.002-1z" opacity=".3" style="isolation:isolate"/><path id="flap_shadow" fill="url(#radial-gradient)" d="M10 11c.706-.08 1.081-.38 1-.984V5q.997-.003 1-1V1c.005-.64-.31-.99-1-1H0v11z" opacity=".711" style="isolation:isolate"/><g id="g579"><path id="path626" d="M4 3v3h1L4 7v6s0 1 1 1h8c1 0 1-1 1-1V7l-1-1h1V3z"/><path id="path627" fill="#e5e5e5" fill-rule="evenodd" stroke="#003768" stroke-miterlimit="10" stroke-width=".003" d="M5 13V8s.99-1.015 1-1V5H5V4h8v1h-1v2l1 1v5z"/><path id="path628" fill="#c92d00" fill-rule="evenodd" d="M7 5.995c2-2 2 2 4 0V7l1 2v3H6V9l1-2z"/><path id="path629" fill="red" fill-rule="evenodd" d="M7 5.995c2-2 2 2 4 0V7l1 2v3H6V9l1-2z"/></g><path id="icon_shadow" fill="url(#linear-gradient)" d="M5 4h2v9H5z"/><path id="flap" d="M5 2.951c0-.603-.37-1.145-.931-1.363L0 .006V12l4.113 1.935c.31.147.681.014.828-.298a.6.6 0 0 0 .05-.224z" class="cls-3"/></g></svg>
